SF_Symbols/newspaper.svg

<?xml version="1.0" encoding="UTF-8"?>
<svg xmlns="http://www.w3.org/2000/svg" xmlns:xlink="http://www.w3.org/1999/xlink" width="24" height="24" viewBox="0 0 24 24" version="1.1">
<g id="surface1">
<path style=" stroke:none;fill-rule:nonzero;fill:rgb(100%,100%,100%);fill-opacity:1;" d="M 0.15625 20.5 C 0.15625 21.542969 0.417969 22.328125 0.9375 22.855469 C 1.457031 23.382812 2.246094 23.644531 3.300781 23.644531 L 20.574219 23.644531 C 21.664062 23.644531 22.480469 23.375 23.019531 22.832031 C 23.570312 22.296875 23.84375 21.496094 23.84375 20.425781 L 23.84375 4.542969 C 23.84375 3.464844 23.570312 2.660156 23.019531 2.125 C 22.480469 1.582031 21.664062 1.3125 20.574219 1.3125 L 8.019531 1.3125 C 6.929688 1.3125 6.109375 1.582031 5.5625 2.125 C 5.019531 2.660156 4.75 3.464844 4.75 4.542969 L 4.75 9.511719 L 2.261719 9.511719 C 1.601562 9.511719 1.082031 9.683594 0.707031 10.03125 C 0.339844 10.371094 0.15625 10.851562 0.15625 11.46875 Z M 1.832031 20.5 L 1.832031 11.792969 C 1.832031 11.605469 1.886719 11.457031 1.988281 11.355469 C 2.101562 11.242188 2.253906 11.1875 2.449219 11.1875 L 4.75 11.1875 L 4.75 20.5 C 4.75 20.929688 4.609375 21.28125 4.324219 21.550781 C 4.046875 21.828125 3.703125 21.96875 3.300781 21.96875 C 2.886719 21.96875 2.535156 21.828125 2.25 21.542969 C 1.972656 21.265625 1.832031 20.917969 1.832031 20.5 Z M 6.074219 21.96875 C 6.308594 21.511719 6.425781 20.984375 6.425781 20.394531 L 6.425781 4.636719 C 6.425781 4.09375 6.566406 3.683594 6.84375 3.40625 C 7.128906 3.128906 7.53125 2.988281 8.050781 2.988281 L 20.542969 2.988281 C 21.0625 2.988281 21.460938 3.128906 21.738281 3.40625 C 22.023438 3.683594 22.167969 4.09375 22.167969 4.636719 L 22.167969 20.332031 C 22.167969 20.875 22.023438 21.28125 21.738281 21.550781 C 21.460938 21.828125 21.0625 21.96875 20.542969 21.96875 Z M 9.136719 7.519531 L 19.480469 7.519531 C 19.660156 7.519531 19.8125 7.457031 19.9375 7.332031 C 20.0625 7.203125 20.125 7.046875 20.125 6.863281 C 20.125 6.691406 20.0625 6.546875 19.9375 6.425781 C 19.8125 6.300781 19.660156 6.238281 19.480469 6.238281 L 9.136719 6.238281 C 8.949219 6.238281 8.792969 6.300781 8.667969 6.425781 C 8.542969 6.546875 8.480469 6.691406 8.480469 6.863281 C 8.480469 7.046875 8.542969 7.203125 8.667969 7.332031 C 8.792969 7.457031 8.949219 7.519531 9.136719 7.519531 Z M 9.136719 11.1875 L 19.480469 11.1875 C 19.660156 11.1875 19.8125 11.128906 19.9375 11.011719 C 20.0625 10.886719 20.125 10.734375 20.125 10.550781 C 20.125 10.371094 20.0625 10.21875 19.9375 10.09375 C 19.8125 9.96875 19.660156 9.90625 19.480469 9.90625 L 9.136719 9.90625 C 8.949219 9.90625 8.792969 9.96875 8.667969 10.09375 C 8.542969 10.21875 8.480469 10.371094 8.480469 10.550781 C 8.480469 10.734375 8.542969 10.886719 8.667969 11.011719 C 8.792969 11.128906 8.949219 11.1875 9.136719 11.1875 Z M 9.75 18.613281 L 12.449219 18.613281 C 12.84375 18.613281 13.152344 18.503906 13.375 18.28125 C 13.605469 18.050781 13.71875 17.738281 13.71875 17.34375 L 13.71875 14.863281 C 13.71875 14.460938 13.605469 14.148438 13.375 13.925781 C 13.152344 13.699219 12.84375 13.582031 12.449219 13.582031 L 9.75 13.582031 C 9.347656 13.582031 9.03125 13.699219 8.800781 13.925781 C 8.578125 14.148438 8.46875 14.460938 8.46875 14.863281 L 8.46875 17.34375 C 8.46875 17.738281 8.578125 18.050781 8.800781 18.28125 C 9.03125 18.503906 9.347656 18.613281 9.75 18.613281 Z M 15.59375 14.863281 L 19.46875 14.863281 C 19.65625 14.863281 19.808594 14.804688 19.925781 14.6875 C 20.050781 14.5625 20.113281 14.414062 20.113281 14.238281 C 20.113281 14.050781 20.050781 13.894531 19.925781 13.769531 C 19.808594 13.644531 19.65625 13.582031 19.46875 13.582031 L 15.59375 13.582031 C 15.40625 13.582031 15.25 13.644531 15.125 13.769531 C 15.007812 13.894531 14.949219 14.050781 14.949219 14.238281 C 14.949219 14.414062 15.007812 14.5625 15.125 14.6875 C 15.25 14.804688 15.40625 14.863281 15.59375 14.863281 Z M 15.59375 18.613281 L 19.46875 18.613281 C 19.65625 18.613281 19.808594 18.554688 19.925781 18.4375 C 20.050781 18.3125 20.113281 18.164062 20.113281 17.988281 C 20.113281 17.800781 20.050781 17.644531 19.925781 17.519531 C 19.808594 17.394531 19.65625 17.332031 19.46875 17.332031 L 15.59375 17.332031 C 15.40625 17.332031 15.25 17.394531 15.125 17.519531 C 15.007812 17.644531 14.949219 17.800781 14.949219 17.988281 C 14.949219 18.164062 15.007812 18.3125 15.125 18.4375 C 15.25 18.554688 15.40625 18.613281 15.59375 18.613281 Z M 15.59375 18.613281 "/>
</g>
</svg>

<svg xmlns="http://www.w3.org/2000/svg" width="24" height="24"><path style="stroke:none;fill-rule:nonzero;fill:#fff;fill-opacity:1" d="M.156 20.5c0 1.043.262 1.828.781 2.355.52.528 1.31.79 2.364.79h17.273c1.09 0 1.906-.27 2.446-.813.55-.535.824-1.336.824-2.406V4.543c0-1.078-.274-1.883-.824-2.418-.54-.543-1.356-.813-2.446-.813H8.02c-1.09 0-1.91.27-2.457.813-.543.535-.813 1.34-.813 2.418v4.969H2.262c-.66 0-1.18.172-1.555.52-.367.34-.55.82-.55 1.437Zm1.676 0v-8.707c0-.188.055-.336.156-.438.114-.113.266-.168.461-.168H4.75V20.5c0 .43-.14.781-.426 1.05a1.4 1.4 0 0 1-1.023.419c-.414 0-.766-.14-1.051-.426a1.408 1.408 0 0 1-.418-1.043Zm4.242 1.469c.235-.457.352-.985.352-1.574V4.637c0-.543.14-.953.418-1.23.285-.278.687-.419 1.207-.419h12.492c.52 0 .918.14 1.195.418.285.278.43.688.43 1.23v15.696c0 .543-.145.95-.43 1.219-.277.277-.675.418-1.195.418Zm3.063-14.45H19.48c.18 0 .332-.062.457-.187a.655.655 0 0 0 .188-.469.585.585 0 0 0-.188-.437.628.628 0 0 0-.457-.188H9.137a.64.64 0 0 0-.469.188.585.585 0 0 0-.188.437.64.64 0 0 0 .656.656Zm0 3.668H19.48c.18 0 .332-.058.457-.175a.622.622 0 0 0 .188-.461.628.628 0 0 0-.188-.457.628.628 0 0 0-.457-.188H9.137a.64.64 0 0 0-.469.188.613.613 0 0 0-.188.457c0 .183.063.336.188.46.125.118.297.18.469.177Zm.613 7.426h2.7c.394 0 .702-.11.925-.332.23-.23.344-.543.344-.937v-2.48c0-.403-.114-.716-.344-.938-.223-.227-.531-.344-.926-.344H9.75c-.402 0-.719.117-.95.344-.222.222-.331.535-.331.937v2.48c0 .395.11.708.332.938.23.223.547.332.949.332Zm5.844-3.75h3.875a.608.608 0 0 0 .457-.175.626.626 0 0 0 .187-.45.64.64 0 0 0-.187-.468.593.593 0 0 0-.457-.188h-3.875a.64.64 0 0 0-.469.188.674.674 0 0 0-.176.468c0 .176.059.325.176.45.129.117.297.18.469.175Zm0 3.75h3.875a.608.608 0 0 0 .457-.175.626.626 0 0 0 .187-.45.64.64 0 0 0-.187-.468.593.593 0 0 0-.457-.188h-3.875a.64.64 0 0 0-.469.188.674.674 0 0 0-.176.468c0 .176.059.325.176.45.129.117.297.18.469.175Zm0 0"/></svg>
